packages/kaspersky-hexa-ui-icons/src/iconsSVGs/24/Log.svg

<svg width="24" height="24" viewBox="0 0 24 24" fill="none" xmlns="http://www.w3.org/2000/svg">
<path d="M12 4C7.58172 4 4 7.58172 4 12C4 16.4183 7.58172 20 12 20C15.6634 20 18.754 17.5368 19.7012 14.1744C19.8957 13.4842 20 12.7551 20 12C20 11.5654 20.3126 11.1802 20.7451 11.1381L20.9763 11.1157C21.5155 11.0632 22 11.4583 22 12C22 12.9402 21.87 13.8517 21.6263 14.7167C20.4426 18.9186 16.5824 22 12 22C6.47715 22 2 17.5228 2 12C2 6.47715 6.47715 2 12 2C12.5417 2 12.9368 2.48451 12.8843 3.0237L12.8618 3.25486C12.8198 3.68738 12.4346 4 12 4Z" fill="black"/>
<path d="M16.1418 4.25075C15.9371 4.63286 15.4655 4.77415 15.0651 4.60794C14.6648 4.44172 14.4254 4.00606 14.5511 3.59121L14.6185 3.3685C14.7759 2.84923 15.3309 2.55276 15.832 2.76081C16.3331 2.96886 16.5078 3.56733 16.2516 4.04562L16.1418 4.25075Z" fill="black"/>
<path d="M18.7921 6.42618C18.4566 6.70178 17.9638 6.65012 17.6569 6.34315C17.3499 6.03617 17.2982 5.54337 17.5738 5.20793L17.7215 5.02819C18.0655 4.60944 18.6878 4.54571 19.0711 4.92893C19.4543 5.31215 19.3906 5.93445 18.9718 6.2785L18.7921 6.42618Z" fill="black"/>
<path d="M20.4088 9.44893C19.9939 9.57462 19.5583 9.3352 19.3921 8.93486C19.2259 8.53453 19.3671 8.06292 19.7493 7.85825L19.9544 7.74838C20.4327 7.4922 21.0311 7.66687 21.2392 8.16798C21.4472 8.66908 21.1508 9.22413 20.6315 9.38145L20.4088 9.44893Z" fill="black"/>
<path d="M13 7C13 6.44772 12.5523 6 12 6C11.4477 6 11 6.44772 11 7V12C11 12.3448 11.1776 12.6653 11.47 12.848L15.47 15.348C15.9383 15.6407 16.5553 15.4983 16.848 15.03C17.1407 14.5617 16.9983 13.9447 16.53 13.652L13 11.4458V7Z" fill="black"/>
</svg>

<svg xmlns="http://www.w3.org/2000/svg" width="24" height="24" fill="none" viewBox="0 0 24 24"><path fill="#000" fill-rule="evenodd" d="M12 4c-4.4183 0-8 3.5817-8 8s3.5817 8 8 8c3.6634 0 6.754-2.4632 7.7012-5.8256A8 8 0 0 0 20 12c0-.4346.3126-.8198.7451-.8619l.2312-.0224C21.5155 11.0632 22 11.4583 22 12c0 .9402-.13 1.8517-.3737 2.7167C20.4426 18.9186 16.5824 22 12 22 6.4772 22 2 17.5228 2 12S6.4772 2 12 2c.5417 0 .9368.4845.8843 1.0237l-.0224.2312C12.8198 3.6874 12.4346 4 12 4m2.5511-.4088c-.1257.4149.1107.8495.5111 1.0155s.8749.0262 1.0796-.356l.1098-.205c.2562-.4784.0776-1.0787-.4236-1.2866s-1.0521.0901-1.2095.6094zm3.0227 1.6167c-.2756.3355-.2239.8283.0831 1.1352.3069.307.7997.3587 1.1352.083l.1797-.1476c.4188-.344.4825-.9663.0993-1.3496s-1.0055-.3195-1.3496.0993zM13 7c0-.5523-.4477-1-1-1s-1 .4477-1 1v5c0 .3448.1776.6653.47.848l4 2.5c.4683.2927 1.0853.1503 1.378-.318s.1503-1.0853-.318-1.378L13 11.4458zm6.3933 1.9378c-.1661-.4004-.0262-.8749.3559-1.0795l.2052-.11c.4783-.2561 1.0786-.0775 1.2865.4237s-.0901 1.0521-.6094 1.2095l-.2227.0674c-.4149.1257-.8495-.1107-1.0155-.511"/></svg>
